X:1
T:Unknown Reel From Logan's Tutor  " "
M:C
L:1/8
Q:80
C:D. McPhee
S:Reel
K:HP
|: {Gdc}d2{g}fdad{g}fd | \
{g}A3/2{g}ce{a}ge{g}ce | \
{Gdc}d2{g}fdad{g}fd |
{g}fage{g}fd{c}dA:| [ | \
ae{g}ce{g}Ae{g}ce | \
ae{g}ce{g}dB{G}Be |
ae{g}ce{g}Ae{g}ce | \
{g}df{g}ed{g}c{d}A{e}Ae | \
ae{g}ce{g}Ae{g}ce |
ae{g}ce{g}dB{G}Be | \
agfe{g}fe{g}dc | \
{g}de{g}fgae{g}ce|]
